images/unWBTC.svg

<svg height="250" viewBox="0 0 250 250" width="250" xmlns="http://www.w3.org/2000/svg" xmlns:xlink="http://www.w3.org/1999/xlink"><linearGradient id="a" gradientUnits="userSpaceOnUse" x1="60.19816791278" x2="249.16055933273" y1="-.00000229358" y2="43.7715599832"><stop offset="0" stop-color="#2e73ff"/><stop offset=".894147" stop-color="#184ce8"/></linearGradient><path d="m248.820312 124.410156c0 68.710938-55.699218 124.410156-124.410156 124.410156-68.710937 0-124.410156-55.699218-124.410156-124.410156 0-68.710937 55.699219-124.410156 124.410156-124.410156 68.710938 0 124.410156 55.699219 124.410156 124.410156zm0 0" fill="url(#a)"/><path d="m153.121094 187.890625c-2.632813-2.9375-6.191406-4.40625-10.675782-4.40625-2.636718 0-4.972656.539063-7.007812 1.609375-2 1.050781-3.59375 2.417969-4.789062 4.105469v-5.371094h-13.664063v20.550781c0 2.1875-.578125 3.90625-1.730469 5.160156-1.160156 1.25-2.730468 1.875-4.71875 1.875-1.941406 0-3.5-.625-4.679687-1.875-1.179688-1.253906-1.769531-2.972656-1.769531-5.160156v-20.550781h-13.523438v22.261719c0 5.050781 1.308594 9.046875 3.917969 11.984375 2.613281 2.933593 6.183593 4.402343 10.714843 4.402343 2.636719 0 4.972657-.535156 7.007813-1.605468 2.03125-1.066406 3.628906-2.46875 4.78125-4.199219v5.464844h13.664063v-21.765625c.179687-1.621094.738281-2.933594 1.671874-3.945313 1.152344-1.25 2.746094-1.878906 4.78125-1.878906 1.941407 0 3.492188.628906 4.648438 1.878906 1.15625 1.253907 1.734375 2.96875 1.734375 5.15625v20.554688h13.59375v-22.328125c0-5.007813-1.320313-8.980469-3.957031-11.917969zm0 0" fill="#fff"/><path d="m210.792969 179.753906c10.25-15.964844 16.195312-34.960937 16.195312-55.34375 0-56.65625-45.925781-102.582031-102.582031-102.582031s-102.582031 45.925781-102.582031 102.582031c0 20.5625 6.046875 39.710938 16.464843 55.761719 21.398438-10.644531 52.308594-17.328125 86.675782-17.328125 33.917968 0 64.464844 6.511719 85.828125 16.910156zm0 0" fill="#fff" fill-rule="evenodd"/><g fill="#2c2c2c"><path d="m155.894531 66.796875-2.738281 2.738281c6.535156 7.144532 10.15625 16.472656 10.15625 26.152344 0 9.683594-3.621094 19.011719-10.15625 26.15625l2.738281 2.738281c7.265625-7.882812 11.296875-18.207031 11.296875-28.925781s-4.03125-21.042969-11.296875-28.921875zm0 0"/><path d="m98.320312 67.035156c7.144532-6.535156 16.472657-10.15625 26.152344-10.15625 9.679688 0 19.011719 3.621094 26.15625 10.15625l2.738282-2.738281c-7.882813-7.265625-18.207032-11.300781-28.925782-11.300781s-21.042968 4.035156-28.921875 11.300781zm0 0"/><path d="m95.761719 121.871094c-6.523438-7.144532-10.144531-16.46875-10.144531-26.140625 0-9.675781 3.621093-19 10.144531-26.140625l-2.738281-2.738282c-7.265626 7.878907-11.296876 18.207032-11.296876 28.925782 0 10.714844 4.03125 21.042968 11.296876 28.921875zm0 0"/><path d="m150.601562 124.398438c-7.144531 6.53125-16.476562 10.15625-26.15625 10.15625-9.679687 0-19.011718-3.625-26.152343-10.15625l-2.738281 2.738281c7.878906 7.265625 18.203124 11.296875 28.921874 11.296875s21.042969-4.03125 28.925782-11.296875zm0 0"/><path d="m141.726562 86.589844c-.546874-5.710938-5.472656-7.628906-11.707031-8.210938v-7.867187h-4.816406v7.71875c-1.269531 0-2.566406 0-3.851563 0v-7.71875h-4.785156v7.921875h-9.773437v5.15625s3.5625-.066406 3.507812 0c.640625-.070313 1.285157.109375 1.792969.503906.511719.394531.851562.972656.941406 1.613281v21.679688c-.011718.226562-.070312.445312-.171875.648437-.097656.203125-.238281.382813-.410156.53125-.167969.148438-.363281.261719-.578125.335938-.214844.070312-.4375.101562-.664062.082031.066406.054687-3.503907 0-3.503907 0l-.914062 5.757813h9.683593v8.050781h4.820313v-7.929688h3.851563v7.894531h4.824218v-7.960937c8.140625-.492187 13.816406-2.5 14.53125-10.117187.574219-6.132813-2.308594-8.871094-6.917968-9.976563 2.800781-1.378906 4.535156-3.933594 4.140624-8.113281zm-6.75 17.140625c0 5.984375-10.257812 5.300781-13.527343 5.300781v-10.621094c3.269531.007813 13.527343-.933594 13.527343 5.320313zm-2.238281-14.96875c0 5.476562-8.558593 4.808593-11.277343 4.808593v-9.652343c2.71875 0 11.277343-.859375 11.277343 4.84375zm0 0"/><path d="m124.449219 145.578125c-9.859375 0-19.496094-2.925781-27.695313-8.40625-8.195312-5.476563-14.585937-13.261719-18.355468-22.371094-3.773438-9.109375-4.761719-19.132812-2.835938-28.804687 1.921875-9.667969 6.671875-18.550782 13.644531-25.523438 6.96875-6.972656 15.851563-11.71875 25.523438-13.644531 9.667969-1.921875 19.691406-.9375 28.800781 2.835937 9.109375 3.773438 16.894531 10.160157 22.375 18.359376 5.480469 8.195312 8.402344 17.832031 8.40625 27.691406 0 6.550781-1.289062 13.035156-3.792969 19.085937-2.507812 6.050781-6.179687 11.546875-10.808593 16.175781-4.632813 4.632813-10.128907 8.304688-16.179688 10.808594-6.050781 2.507813-12.535156 3.796875-19.082031 3.792969zm0-95.820313c-9.085938.007813-17.960938 2.707032-25.511719 7.761719-7.546875 5.050781-13.429688 12.226563-16.902344 20.621094-3.472656 8.390625-4.378906 17.628906-2.601562 26.535156 1.773437 8.910157 6.148437 17.089844 12.574218 23.511719 6.425782 6.421875 14.609376 10.796875 23.515626 12.566406 8.910156 1.773438 18.144531.863282 26.539062-2.613281 8.390625-3.472656 15.566406-9.359375 20.613281-16.910156s7.746094-16.429688 7.75-25.515625c0-6.035156-1.1875-12.015625-3.496093-17.59375-2.308594-5.578125-5.695313-10.644532-9.96875-14.914063-4.269532-4.265625-9.335938-7.652343-14.917969-9.960937-5.578125-2.304688-11.558594-3.492188-17.59375-3.488282zm0 0"/></g></svg>

<svg xmlns="http://www.w3.org/2000/svg" xmlns:xlink="http://www.w3.org/1999/xlink" width="250px" height="250px" viewBox="0 0 250 250" version="1.1">
<defs>
<linearGradient id="linear0" gradientUnits="userSpaceOnUse" x1="26.246401" y1="-0.000000559633" x2="108.634003" y2="19.0844" gradientTransform="matrix(2.293578,0,0,2.293578,0,0)">
<stop offset="0" style="stop-color:rgb(18.039216%,45.09804%,100%);stop-opacity:1;"/>
<stop offset="0.894147" style="stop-color:rgb(9.411765%,29.803923%,90.980393%);stop-opacity:1;"/>
</linearGradient>
</defs>
<g id="surface1">
<path style=" stroke:none;fill-rule:nonzero;fill:url(#linear0);" d="M 248.820312 124.410156 C 248.820312 193.121094 193.121094 248.820312 124.410156 248.820312 C 55.699219 248.820312 0 193.121094 0 124.410156 C 0 55.699219 55.699219 0 124.410156 0 C 193.121094 0 248.820312 55.699219 248.820312 124.410156 Z M 248.820312 124.410156 "/>
<path style=" stroke:none;fill-rule:nonzero;fill:rgb(100%,100%,100%);fill-opacity:1;" d="M 153.121094 187.890625 C 150.488281 184.953125 146.929688 183.484375 142.445312 183.484375 C 139.808594 183.484375 137.472656 184.023438 135.4375 185.09375 C 133.4375 186.144531 131.84375 187.511719 130.648438 189.199219 L 130.648438 183.828125 L 116.984375 183.828125 L 116.984375 204.378906 C 116.984375 206.566406 116.40625 208.285156 115.253906 209.539062 C 114.09375 210.789062 112.523438 211.414062 110.535156 211.414062 C 108.59375 211.414062 107.035156 210.789062 105.855469 209.539062 C 104.675781 208.285156 104.085938 206.566406 104.085938 204.378906 L 104.085938 183.828125 L 90.5625 183.828125 L 90.5625 206.089844 C 90.5625 211.140625 91.871094 215.136719 94.480469 218.074219 C 97.09375 221.007812 100.664062 222.476562 105.195312 222.476562 C 107.832031 222.476562 110.167969 221.941406 112.203125 220.871094 C 114.234375 219.804688 115.832031 218.402344 116.984375 216.671875 L 116.984375 222.136719 L 130.648438 222.136719 L 130.648438 200.371094 C 130.828125 198.75 131.386719 197.4375 132.320312 196.425781 C 133.472656 195.175781 135.066406 194.546875 137.101562 194.546875 C 139.042969 194.546875 140.59375 195.175781 141.75 196.425781 C 142.90625 197.679688 143.484375 199.394531 143.484375 201.582031 L 143.484375 222.136719 L 157.078125 222.136719 L 157.078125 199.808594 C 157.078125 194.800781 155.757812 190.828125 153.121094 187.890625 Z M 153.121094 187.890625 "/>
<path style=" stroke:none;fill-rule:evenodd;fill:rgb(100%,100%,100%);fill-opacity:1;" d="M 210.792969 179.753906 C 221.042969 163.789062 226.988281 144.792969 226.988281 124.410156 C 226.988281 67.753906 181.0625 21.828125 124.40625 21.828125 C 67.75 21.828125 21.824219 67.753906 21.824219 124.410156 C 21.824219 144.972656 27.871094 164.121094 38.289062 180.171875 C 59.6875 169.527344 90.597656 162.84375 124.964844 162.84375 C 158.882812 162.84375 189.429688 169.355469 210.792969 179.753906 Z M 210.792969 179.753906 "/>
<path style=" stroke:none;fill-rule:nonzero;fill:rgb(17.254902%,17.254902%,17.254902%);fill-opacity:1;" d="M 155.894531 66.796875 L 153.15625 69.535156 C 159.691406 76.679688 163.3125 86.007812 163.3125 95.6875 C 163.3125 105.371094 159.691406 114.699219 153.15625 121.84375 L 155.894531 124.582031 C 163.160156 116.699219 167.191406 106.375 167.191406 95.65625 C 167.191406 84.9375 163.160156 74.613281 155.894531 66.734375 Z M 155.894531 66.796875 "/>
<path style=" stroke:none;fill-rule:nonzero;fill:rgb(17.254902%,17.254902%,17.254902%);fill-opacity:1;" d="M 98.320312 67.035156 C 105.464844 60.5 114.792969 56.878906 124.472656 56.878906 C 134.152344 56.878906 143.484375 60.5 150.628906 67.035156 L 153.367188 64.296875 C 145.484375 57.03125 135.160156 52.996094 124.441406 52.996094 C 113.722656 52.996094 103.398438 57.03125 95.519531 64.296875 Z M 98.320312 67.035156 "/>
<path style=" stroke:none;fill-rule:nonzero;fill:rgb(17.254902%,17.254902%,17.254902%);fill-opacity:1;" d="M 95.761719 121.871094 C 89.238281 114.726562 85.617188 105.402344 85.617188 95.730469 C 85.617188 86.054688 89.238281 76.730469 95.761719 69.589844 L 93.023438 66.851562 C 85.757812 74.730469 81.726562 85.058594 81.726562 95.777344 C 81.726562 106.492188 85.757812 116.820312 93.023438 124.699219 Z M 95.761719 121.871094 "/>
<path style=" stroke:none;fill-rule:nonzero;fill:rgb(17.254902%,17.254902%,17.254902%);fill-opacity:1;" d="M 150.601562 124.398438 C 143.457031 130.929688 134.125 134.554688 124.445312 134.554688 C 114.765625 134.554688 105.433594 130.929688 98.292969 124.398438 L 95.554688 127.136719 C 103.433594 134.402344 113.757812 138.433594 124.476562 138.433594 C 135.195312 138.433594 145.519531 134.402344 153.402344 127.136719 Z M 150.601562 124.398438 "/>
<path style=" stroke:none;fill-rule:nonzero;fill:rgb(17.254902%,17.254902%,17.254902%);fill-opacity:1;" d="M 141.726562 86.589844 C 141.179688 80.878906 136.253906 78.960938 130.019531 78.378906 L 130.019531 70.511719 L 125.203125 70.511719 L 125.203125 78.230469 C 123.933594 78.230469 122.636719 78.230469 121.351562 78.230469 L 121.351562 70.511719 L 116.566406 70.511719 L 116.566406 78.433594 L 106.792969 78.433594 L 106.792969 83.589844 C 106.792969 83.589844 110.355469 83.523438 110.300781 83.589844 C 110.941406 83.519531 111.585938 83.699219 112.09375 84.09375 C 112.605469 84.488281 112.945312 85.066406 113.035156 85.707031 L 113.035156 107.386719 C 113.023438 107.613281 112.964844 107.832031 112.863281 108.035156 C 112.765625 108.238281 112.625 108.417969 112.453125 108.566406 C 112.285156 108.714844 112.089844 108.828125 111.875 108.902344 C 111.660156 108.972656 111.4375 109.003906 111.210938 108.984375 C 111.277344 109.039062 107.707031 108.984375 107.707031 108.984375 L 106.792969 114.742188 L 116.476562 114.742188 L 116.476562 122.792969 L 121.296875 122.792969 L 121.296875 114.863281 L 125.148438 114.863281 L 125.148438 122.757812 L 129.972656 122.757812 L 129.972656 114.796875 C 138.113281 114.304688 143.789062 112.296875 144.503906 104.679688 C 145.078125 98.546875 142.195312 95.808594 137.585938 94.703125 C 140.386719 93.324219 142.121094 90.769531 141.726562 86.589844 Z M 134.976562 103.730469 C 134.976562 109.714844 124.71875 109.03125 121.449219 109.03125 L 121.449219 98.410156 C 124.71875 98.417969 134.976562 97.476562 134.976562 103.730469 Z M 132.738281 88.761719 C 132.738281 94.238281 124.179688 93.570312 121.460938 93.570312 L 121.460938 83.917969 C 124.179688 83.917969 132.738281 83.058594 132.738281 88.761719 Z M 132.738281 88.761719 "/>
<path style=" stroke:none;fill-rule:nonzero;fill:rgb(17.254902%,17.254902%,17.254902%);fill-opacity:1;" d="M 124.449219 145.578125 C 114.589844 145.578125 104.953125 142.652344 96.753906 137.171875 C 88.558594 131.695312 82.167969 123.910156 78.398438 114.800781 C 74.625 105.691406 73.636719 95.667969 75.5625 85.996094 C 77.484375 76.328125 82.234375 67.445312 89.207031 60.472656 C 96.175781 53.5 105.058594 48.753906 114.730469 46.828125 C 124.398438 44.90625 134.421875 45.890625 143.53125 49.664062 C 152.640625 53.4375 160.425781 59.824219 165.90625 68.023438 C 171.386719 76.21875 174.308594 85.855469 174.3125 95.714844 C 174.3125 102.265625 173.023438 108.75 170.519531 114.800781 C 168.011719 120.851562 164.339844 126.347656 159.710938 130.976562 C 155.078125 135.609375 149.582031 139.28125 143.53125 141.785156 C 137.480469 144.292969 130.996094 145.582031 124.449219 145.578125 Z M 124.449219 49.757812 C 115.363281 49.765625 106.488281 52.464844 98.9375 57.519531 C 91.390625 62.570312 85.507812 69.746094 82.035156 78.140625 C 78.5625 86.53125 77.65625 95.769531 79.433594 104.675781 C 81.207031 113.585938 85.582031 121.765625 92.007812 128.1875 C 98.433594 134.609375 106.617188 138.984375 115.523438 140.753906 C 124.433594 142.527344 133.667969 141.617188 142.0625 138.140625 C 150.453125 134.667969 157.628906 128.78125 162.675781 121.230469 C 167.722656 113.679688 170.421875 104.800781 170.425781 95.714844 C 170.425781 89.679688 169.238281 83.699219 166.929688 78.121094 C 164.621094 72.542969 161.234375 67.476562 156.960938 63.207031 C 152.691406 58.941406 147.625 55.554688 142.042969 53.246094 C 136.464844 50.941406 130.484375 49.753906 124.449219 49.757812 Z M 124.449219 49.757812 "/>
</g>
</svg>
